X:3206
T: Collier's
C:Trad
S: The First Month of Spring, John Vesey and Paul Brady
I:speed 250
M:4/4
K:D
|:(3FED (3EFG A3 B | =c2 cB cAGc | Ad d^c d2 (3efg | fdec dcAG | 
(3FED (3EFG A3 B | =cedB cAGc | Add=c (3ABc AG |[1EFGE D4:|[2EFGE D3 g:|
|:fd (3efg fdec | Ad dc Ad dg | fd (3efg fdec | A^GAB =c3 d | 
eaa2 efge |  dged =cAGc | (3AB=c AG (3EFG AB | =cAGE ED D2:|


